48/devices/drive-harddisk-solidstate.svg

<?xml version="1.0" encoding="UTF-8" standalone="no"?>
<!-- Created with Inkscape (http://www.inkscape.org/) -->

<svg
   xmlns:dc="http://purl.org/dc/elements/1.1/"
   xmlns:cc="http://creativecommons.org/ns#"
   xmlns:rdf="http://www.w3.org/1999/02/22-rdf-syntax-ns#"
   xmlns:svg="http://www.w3.org/2000/svg"
   xmlns="http://www.w3.org/2000/svg"
   xmlns:sodipodi="http://sodipodi.sourceforge.net/DTD/sodipodi-0.dtd"
   xmlns:inkscape="http://www.inkscape.org/namespaces/inkscape"
   width="48"
   height="48"
   viewBox="0 0 12.7 12.7"
   version="1.1"
   id="svg2634"
   inkscape:version="0.92.4 5da689c313, 2019-01-14"
   sodipodi:docname="drive-harddisk-solidstate.svg">
  <title
     id="title3250">Boston Icons</title>
  <defs
     id="defs2628" />
  <sodipodi:namedview
     id="base"
     pagecolor="#ffffff"
     bordercolor="#00ffed"
     borderopacity="1"
     inkscape:pageopacity="1"
     inkscape:pageshadow="2"
     inkscape:zoom="15.839192"
     inkscape:cx="3.1694079"
     inkscape:cy="24.934879"
     inkscape:document-units="px"
     inkscape:current-layer="g981"
     showgrid="false"
     showguides="false"
     inkscape:guide-bbox="true"
     fit-margin-top="0"
     fit-margin-left="0"
     fit-margin-right="0"
     fit-margin-bottom="0"
     inkscape:window-width="1920"
     inkscape:window-height="1016"
     inkscape:window-x="0"
     inkscape:window-y="27"
     inkscape:window-maximized="1"
     units="px">
    <inkscape:grid
       type="xygrid"
       id="grid3182"
       spacingx="0.26458333"
       spacingy="0.26458333"
       empspacing="4"
       originx="-82.550004"
       originy="-127.00001"
       dotted="false" />
    <sodipodi:guide
       position="-4.268358e-06,27.516666"
       orientation="1,0"
       id="guide3216"
       inkscape:locked="false" />
    <sodipodi:guide
       position="32.279157,-4.1479283e-06"
       orientation="0,1"
       id="guide3222"
       inkscape:locked="false" />
    <sodipodi:guide
       position="13.229163,0.52915746"
       orientation="0,1"
       id="guide3226"
       inkscape:locked="false" />
    <sodipodi:guide
       position="5.8208298,12.170824"
       orientation="0,1"
       id="guide864"
       inkscape:locked="false" />
    <sodipodi:guide
       position="12.699995,10.847905"
       orientation="1,0"
       id="guide868"
       inkscape:locked="false" />
    <sodipodi:guide
       position="2.1166616,12.170822"
       orientation="1,0"
       id="guide1119"
       inkscape:locked="false" />
    <sodipodi:guide
       position="10.583328,11.112488"
       orientation="1,0"
       id="guide1121"
       inkscape:locked="false" />
    <sodipodi:guide
       position="1.8520783,8.7312383"
       orientation="0,1"
       id="guide1131"
       inkscape:locked="false" />
    <sodipodi:guide
       position="3.4395782,8.2020716"
       orientation="1,0"
       id="guide1138"
       inkscape:locked="false" />
    <sodipodi:guide
       position="9.2604115,7.1437383"
       orientation="1,0"
       id="guide1140"
       inkscape:locked="false" />
    <sodipodi:guide
       position="1.8520783,10.318738"
       orientation="0,1"
       id="guide1142"
       inkscape:locked="false" />
    <sodipodi:guide
       position="1.3229116,3.1749884"
       orientation="0,1"
       id="guide1152"
       inkscape:locked="false" />
    <sodipodi:guide
       position="4.2333282,1.5874884"
       orientation="0,1"
       id="guide849"
       inkscape:locked="false" />
    <sodipodi:guide
       position="9.5249948,3.1749884"
       orientation="1,0"
       id="guide915"
       inkscape:locked="false" />
    <sodipodi:guide
       position="4.7624949,4.7624883"
       orientation="1,0"
       id="guide917"
       inkscape:locked="false" />
  </sodipodi:namedview>
  <metadata
     id="metadata2631">
    <rdf:RDF>
      <cc:Work
         rdf:about="">
        <dc:format>image/svg+xml</dc:format>
        <dc:type
           rdf:resource="http://purl.org/dc/dcmitype/StillImage" />
        <dc:title>Boston Icons</dc:title>
        <cc:license
           rdf:resource="dribbble.com/chrisdiaz" />
        <dc:creator>
          <cc:Agent>
            <dc:title>Christian Díaz</dc:title>
          </cc:Agent>
        </dc:creator>
        <dc:date>2019</dc:date>
        <dc:publisher>
          <cc:Agent>
            <dc:title>Christian Díaz</dc:title>
          </cc:Agent>
        </dc:publisher>
        <dc:identifier>christiandiaz.design [at] gmail [dot] com</dc:identifier>
        <dc:subject>
          <rdf:Bag>
            <rdf:li>GNOME icon Theme</rdf:li>
          </rdf:Bag>
        </dc:subject>
        <dc:description>diazchris.deviantart.com | dribbble.com/chrisdiaz</dc:description>
      </cc:Work>
    </rdf:RDF>
  </metadata>
  <g
     inkscape:label="Capa 1"
     inkscape:groupmode="layer"
     id="layer1"
     transform="translate(-82.550003,-157.3)">
    <g
       id="g981">
      <g
         id="g1174">
        <rect
           style="opacity:1;fill:#373b43;fill-opacity:1;fill-rule:nonzero;stroke:none;stroke-width:1.58749998;stroke-linecap:square;stroke-linejoin:bevel;stroke-miterlimit:4;stroke-dasharray:none;stroke-dashoffset:35;stroke-opacity:1"
           id="rect846"
           width="8.4666662"
           height="11.641666"
           x="84.666664"
           y="157.82918"
           ry="0.26458389"
           rx="0.26458347" />
        <rect
           style="opacity:1;fill:#96a5af;fill-opacity:1;fill-rule:nonzero;stroke:none;stroke-width:1.58749998;stroke-linecap:square;stroke-linejoin:bevel;stroke-miterlimit:4;stroke-dasharray:none;stroke-dashoffset:35;stroke-opacity:1"
           id="rect909"
           width="7.9375"
           height="11.1125"
           x="84.931252"
           y="158.09377"
           rx="3.6958788e-06"
           ry="0" />
        <circle
           style="opacity:1;fill:#373b43;fill-opacity:1;fill-rule:nonzero;stroke:none;stroke-width:1.58749998;stroke-linecap:square;stroke-linejoin:bevel;stroke-miterlimit:4;stroke-dasharray:none;stroke-dashoffset:35;stroke-opacity:1"
           id="path911"
           cx="85.724998"
           cy="158.88751"
           r="0.26458332" />
        <circle
           style="opacity:1;fill:#373b43;fill-opacity:1;fill-rule:nonzero;stroke:none;stroke-width:1.58749998;stroke-linecap:square;stroke-linejoin:bevel;stroke-miterlimit:4;stroke-dasharray:none;stroke-dashoffset:35;stroke-opacity:1"
           id="path913"
           cx="92.074997"
           cy="158.88751"
           r="0.26458332" />
        <rect
           style="opacity:1;fill:#373b43;fill-opacity:1;fill-rule:nonzero;stroke:none;stroke-width:1.58749998;stroke-linecap:square;stroke-linejoin:bevel;stroke-miterlimit:4;stroke-dasharray:none;stroke-dashoffset:35;stroke-opacity:1"
           id="rect919"
           width="4.7624989"
           height="1.0583289"
           x="87.3125"
           y="168.41251"
           rx="3.6958852e-06" />
        <rect
           style="opacity:1;fill:#556e81;fill-opacity:1;fill-rule:nonzero;stroke:none;stroke-width:1.58749998;stroke-linecap:square;stroke-linejoin:bevel;stroke-miterlimit:4;stroke-dasharray:none;stroke-dashoffset:35;stroke-opacity:1"
           id="rect921"
           width="1.0583329"
           height="0.52917337"
           x="87.57708"
           y="168.67709"
           rx="3.6958852e-06" />
        <rect
           style="opacity:1;fill:#556e81;fill-opacity:1;fill-rule:nonzero;stroke:none;stroke-width:1.58749998;stroke-linecap:square;stroke-linejoin:bevel;stroke-miterlimit:4;stroke-dasharray:none;stroke-dashoffset:35;stroke-opacity:1"
           id="rect923"
           width="2.6458359"
           height="0.52917337"
           x="89.164581"
           y="168.67709"
           rx="3.6958852e-06" />
        <circle
           style="opacity:1;fill:#373b43;fill-opacity:1;fill-rule:nonzero;stroke:none;stroke-width:1.58749998;stroke-linecap:square;stroke-linejoin:bevel;stroke-miterlimit:4;stroke-dasharray:none;stroke-dashoffset:35;stroke-opacity:1"
           id="path929"
           cx="85.724998"
           cy="167.88333"
           r="0.26458332" />
        <circle
           style="opacity:1;fill:#373b43;fill-opacity:1;fill-rule:nonzero;stroke:none;stroke-width:1.58749998;stroke-linecap:square;stroke-linejoin:bevel;stroke-miterlimit:4;stroke-dasharray:none;stroke-dashoffset:35;stroke-opacity:1"
           id="path929-3"
           cx="92.074997"
           cy="167.88333"
           r="0.26458332" />
        <path
           id="rect1035"
           transform="matrix(0.26458333,0,0,0.26458333,82.550003,157.3)"
           d="m 17,11 v 4 h -1 v 1 h -4 v 2 h 4 v 2 h -4 v 2 h 4 v 2 h -4 v 2 h 4 v 2 h -4 v 2 h 4 v 1 h 1 v 4 h 2 v -4 h 2 v 4 h 2 v -4 h 2 v 4 h 2 v -4 h 2 v 4 h 2 v -4 h 1 v -1 h 4 v -2 h -4 v -2 h 4 v -2 h -4 v -2 h 4 v -2 h -4 v -2 h 4 v -2 h -4 v -1 h -1 v -4 h -2 v 4 h -2 v -4 h -2 v 4 h -2 v -4 h -2 v 4 h -2 v -4 z m 0,5 H 31 V 30 H 17 Z m 2,2 V 28 H 29 V 18 Z m 1,1 h 8 v 8 h -8 z m 1,1 v 2 h 3 v -2 z m 0,3 v 1 h 3 v -1 z m 4,0 v 1 h 1 v -1 z m -4,2 v 1 h 1 v -1 z m 2,0 v 1 h 2 v -1 z m 3,0 v 1 h 1 v -1 z"
           style="opacity:1;fill:#ffffff;fill-opacity:1;fill-rule:nonzero;stroke:none;stroke-width:6;stroke-linecap:square;stroke-linejoin:bevel;stroke-miterlimit:4;stroke-dasharray:none;stroke-dashoffset:35;stroke-opacity:1"
           inkscape:connector-curvature="0" />
      </g>
    </g>
  </g>
</svg>

<?xml version="1.0" encoding="UTF-8" standalone="no"?>
<!-- Created with Inkscape (http://www.inkscape.org/) -->

<svg
   xmlns:dc="http://purl.org/dc/elements/1.1/"
   xmlns:cc="http://creativecommons.org/ns#"
   xmlns:rdf="http://www.w3.org/1999/02/22-rdf-syntax-ns#"
   xmlns:svg="http://www.w3.org/2000/svg"
   xmlns="http://www.w3.org/2000/svg"
   xmlns:sodipodi="http://sodipodi.sourceforge.net/DTD/sodipodi-0.dtd"
   xmlns:inkscape="http://www.inkscape.org/namespaces/inkscape"
   width="48"
   height="48"
   viewBox="0 0 12.7 12.7"
   version="1.1"
   id="svg2634"
   inkscape:version="0.92.4 5da689c313, 2019-01-14"
   sodipodi:docname="drive-harddisk-solidstate.svg">
  <title
     id="title3250">Boston Icons</title>
  <defs
     id="defs2628" />
  <sodipodi:namedview
     id="base"
     pagecolor="#ffffff"
     bordercolor="#00ffed"
     borderopacity="1"
     inkscape:pageopacity="1"
     inkscape:pageshadow="2"
     inkscape:zoom="15.839192"
     inkscape:cx="15.228104"
     inkscape:cy="25.439955"
     inkscape:document-units="px"
     inkscape:current-layer="g981"
     showgrid="false"
     showguides="false"
     inkscape:guide-bbox="true"
     fit-margin-top="0"
     fit-margin-left="0"
     fit-margin-right="0"
     fit-margin-bottom="0"
     inkscape:window-width="1920"
     inkscape:window-height="1016"
     inkscape:window-x="0"
     inkscape:window-y="27"
     inkscape:window-maximized="1"
     units="px">
    <inkscape:grid
       type="xygrid"
       id="grid3182"
       spacingx="0.26458333"
       spacingy="0.26458333"
       empspacing="4"
       originx="-82.550004"
       originy="-127.00001"
       dotted="false" />
    <sodipodi:guide
       position="-4.268358e-06,27.516666"
       orientation="1,0"
       id="guide3216"
       inkscape:locked="false" />
    <sodipodi:guide
       position="32.279157,-4.1479283e-06"
       orientation="0,1"
       id="guide3222"
       inkscape:locked="false" />
    <sodipodi:guide
       position="13.229163,0.52915746"
       orientation="0,1"
       id="guide3226"
       inkscape:locked="false" />
    <sodipodi:guide
       position="5.8208298,12.170824"
       orientation="0,1"
       id="guide864"
       inkscape:locked="false" />
    <sodipodi:guide
       position="12.699995,10.847905"
       orientation="1,0"
       id="guide868"
       inkscape:locked="false" />
    <sodipodi:guide
       position="2.1166616,12.170822"
       orientation="1,0"
       id="guide1119"
       inkscape:locked="false" />
    <sodipodi:guide
       position="10.583328,11.112488"
       orientation="1,0"
       id="guide1121"
       inkscape:locked="false" />
    <sodipodi:guide
       position="1.8520783,8.7312383"
       orientation="0,1"
       id="guide1131"
       inkscape:locked="false" />
    <sodipodi:guide
       position="3.4395782,8.2020716"
       orientation="1,0"
       id="guide1138"
       inkscape:locked="false" />
    <sodipodi:guide
       position="9.2604115,7.1437383"
       orientation="1,0"
       id="guide1140"
       inkscape:locked="false" />
    <sodipodi:guide
       position="1.8520783,10.318738"
       orientation="0,1"
       id="guide1142"
       inkscape:locked="false" />
    <sodipodi:guide
       position="1.3229116,3.1749884"
       orientation="0,1"
       id="guide1152"
       inkscape:locked="false" />
    <sodipodi:guide
       position="4.2333282,1.5874884"
       orientation="0,1"
       id="guide849"
       inkscape:locked="false" />
    <sodipodi:guide
       position="9.5249948,3.1749884"
       orientation="1,0"
       id="guide915"
       inkscape:locked="false" />
    <sodipodi:guide
       position="4.7624949,4.7624883"
       orientation="1,0"
       id="guide917"
       inkscape:locked="false" />
  </sodipodi:namedview>
  <metadata
     id="metadata2631">
    <rdf:RDF>
      <cc:Work
         rdf:about="">
        <dc:format>image/svg+xml</dc:format>
        <dc:type
           rdf:resource="http://purl.org/dc/dcmitype/StillImage" />
        <dc:title>Boston Icons</dc:title>
        <cc:license
           rdf:resource="dribbble.com/chrisdiaz" />
        <dc:creator>
          <cc:Agent>
            <dc:title>Christian Díaz</dc:title>
          </cc:Agent>
        </dc:creator>
        <dc:date>2019</dc:date>
        <dc:publisher>
          <cc:Agent>
            <dc:title>Christian Díaz</dc:title>
          </cc:Agent>
        </dc:publisher>
        <dc:identifier>christiandiaz.design [at] gmail [dot] com</dc:identifier>
        <dc:subject>
          <rdf:Bag>
            <rdf:li>GNOME icon Theme</rdf:li>
          </rdf:Bag>
        </dc:subject>
        <dc:description>diazchris.deviantart.com | dribbble.com/chrisdiaz</dc:description>
      </cc:Work>
    </rdf:RDF>
  </metadata>
  <g
     inkscape:label="Capa 1"
     inkscape:groupmode="layer"
     id="layer1"
     transform="translate(-82.550003,-157.3)">
    <g
       id="g981">
      <g
         id="g1174">
        <rect
           style="opacity:1;fill:#464d56;fill-opacity:1;fill-rule:nonzero;stroke:none;stroke-width:1.58749998;stroke-linecap:square;stroke-linejoin:bevel;stroke-miterlimit:4;stroke-dasharray:none;stroke-dashoffset:35;stroke-opacity:1"
           id="rect846"
           width="8.4666662"
           height="11.641666"
           x="84.666664"
           y="157.82918"
           ry="0.26458389"
           rx="0.26458347" />
        <rect
           style="opacity:1;fill:#a8b4bd;fill-opacity:1;fill-rule:nonzero;stroke:none;stroke-width:1.58749998;stroke-linecap:square;stroke-linejoin:bevel;stroke-miterlimit:4;stroke-dasharray:none;stroke-dashoffset:35;stroke-opacity:1"
           id="rect909"
           width="7.9375"
           height="11.1125"
           x="84.931252"
           y="158.09377"
           rx="3.6958788e-06"
           ry="0" />
        <circle
           style="opacity:1;fill:#464d56;fill-opacity:1;fill-rule:nonzero;stroke:none;stroke-width:1.58749998;stroke-linecap:square;stroke-linejoin:bevel;stroke-miterlimit:4;stroke-dasharray:none;stroke-dashoffset:35;stroke-opacity:1"
           id="path911"
           cx="85.724998"
           cy="158.88751"
           r="0.26458332" />
        <circle
           style="opacity:1;fill:#464d56;fill-opacity:1;fill-rule:nonzero;stroke:none;stroke-width:1.58749998;stroke-linecap:square;stroke-linejoin:bevel;stroke-miterlimit:4;stroke-dasharray:none;stroke-dashoffset:35;stroke-opacity:1"
           id="path913"
           cx="92.074997"
           cy="158.88751"
           r="0.26458332" />
        <rect
           style="opacity:1;fill:#464d56;fill-opacity:1;fill-rule:nonzero;stroke:none;stroke-width:1.58749998;stroke-linecap:square;stroke-linejoin:bevel;stroke-miterlimit:4;stroke-dasharray:none;stroke-dashoffset:35;stroke-opacity:1"
           id="rect919"
           width="4.7624989"
           height="1.0583289"
           x="87.3125"
           y="168.41251"
           rx="3.6958852e-06" />
        <rect
           style="opacity:1;fill:#5f7a8d;fill-opacity:1;fill-rule:nonzero;stroke:none;stroke-width:1.58749998;stroke-linecap:square;stroke-linejoin:bevel;stroke-miterlimit:4;stroke-dasharray:none;stroke-dashoffset:35;stroke-opacity:1"
           id="rect921"
           width="1.0583329"
           height="0.52917337"
           x="87.57708"
           y="168.67709"
           rx="3.6958852e-06" />
        <rect
           style="opacity:1;fill:#5f7a8d;fill-opacity:1;fill-rule:nonzero;stroke:none;stroke-width:1.58749998;stroke-linecap:square;stroke-linejoin:bevel;stroke-miterlimit:4;stroke-dasharray:none;stroke-dashoffset:35;stroke-opacity:1"
           id="rect923"
           width="2.6458359"
           height="0.52917337"
           x="89.164581"
           y="168.67709"
           rx="3.6958852e-06" />
        <circle
           style="opacity:1;fill:#464d56;fill-opacity:1;fill-rule:nonzero;stroke:none;stroke-width:1.58749998;stroke-linecap:square;stroke-linejoin:bevel;stroke-miterlimit:4;stroke-dasharray:none;stroke-dashoffset:35;stroke-opacity:1"
           id="path929"
           cx="85.724998"
           cy="167.88333"
           r="0.26458332" />
        <circle
           style="opacity:1;fill:#464d56;fill-opacity:1;fill-rule:nonzero;stroke:none;stroke-width:1.58749998;stroke-linecap:square;stroke-linejoin:bevel;stroke-miterlimit:4;stroke-dasharray:none;stroke-dashoffset:35;stroke-opacity:1"
           id="path929-3"
           cx="92.074997"
           cy="167.88333"
           r="0.26458332" />
        <path
           id="rect1035"
           transform="matrix(0.26458333,0,0,0.26458333,82.550003,157.3)"
           d="M 17 11 L 17 15 L 16 15 L 16 16 L 12 16 L 12 18 L 16 18 L 16 20 L 12 20 L 12 22 L 16 22 L 16 24 L 12 24 L 12 26 L 16 26 L 16 28 L 12 28 L 12 30 L 16 30 L 16 31 L 17 31 L 17 35 L 19 35 L 19 31 L 21 31 L 21 35 L 23 35 L 23 31 L 25 31 L 25 35 L 27 35 L 27 31 L 29 31 L 29 35 L 31 35 L 31 31 L 32 31 L 32 30 L 36 30 L 36 28 L 32 28 L 32 26 L 36 26 L 36 24 L 32 24 L 32 22 L 36 22 L 36 20 L 32 20 L 32 18 L 36 18 L 36 16 L 32 16 L 32 15 L 31 15 L 31 11 L 29 11 L 29 15 L 27 15 L 27 11 L 25 11 L 25 15 L 23 15 L 23 11 L 21 11 L 21 15 L 19 15 L 19 11 L 17 11 z M 17 16 L 31 16 L 31 30 L 17 30 L 17 16 z M 19 18 L 19 28 L 29 28 L 29 18 L 19 18 z M 20 19 L 28 19 L 28 27 L 20 27 L 20 19 z M 21 20 L 21 22 L 24 22 L 24 20 L 21 20 z M 21 23 L 21 24 L 24 24 L 24 23 L 21 23 z M 25 23 L 25 24 L 26 24 L 26 23 L 25 23 z M 21 25 L 21 26 L 22 26 L 22 25 L 21 25 z M 23 25 L 23 26 L 25 26 L 25 25 L 23 25 z M 26 25 L 26 26 L 27 26 L 27 25 L 26 25 z "
           style="opacity:1;fill:#ffffff;fill-opacity:1;fill-rule:nonzero;stroke:none;stroke-width:6;stroke-linecap:square;stroke-linejoin:bevel;stroke-miterlimit:4;stroke-dasharray:none;stroke-dashoffset:35;stroke-opacity:1" />
      </g>
    </g>
  </g>
</svg>
